MonoIcons/scalable/status/weather-overcast-symbolic.svg

<?xml version="1.0" encoding="UTF-8"?>
<svg height="16px" viewBox="0 0 16 16" width="16px" xmlns="http://www.w3.org/2000/svg">
    <path d="m 9.5 2 c -1.285156 0 -2.328125 0.972656 -2.46875 2.21875 c -0.328125 -0.121094 -0.660156 -0.21875 -1.03125 -0.21875 c -1.65625 0 -3 1.34375 -3 3 c 0 0.097656 0.023438 0.183594 0.03125 0.28125 c -0.300781 -0.179688 -0.65625 -0.28125 -1.03125 -0.28125 c -1.105469 0 -2 0.894531 -2 2 s 0.894531 2 2 2 h 3.101562 c 0.25 -1.679688 1.652344 -3 3.398438 -3 c 0.980469 0 1.785156 0.488281 2.417969 1.144531 c 0.195312 -0.046875 0.359375 -0.144531 0.582031 -0.144531 c 1.261719 0 2.1875 0.875 2.605469 2 h 0.394531 c 0.828125 0 1.5 -0.671875 1.5 -1.5 s -0.671875 -1.5 -1.5 -1.5 c -0.207031 0 -0.414062 0.050781 -0.59375 0.125 c 0.050781 -0.203125 0.09375 -0.40625 0.09375 -0.625 c 0 -1.230469 -0.894531 -2.226562 -2.0625 -2.4375 c 0.042969 -0.179688 0.0625 -0.367188 0.0625 -0.5625 c 0 -1.378906 -1.121094 -2.5 -2.5 -2.5 z m -1 7 c -1.378906 0 -2.5 1.121094 -2.5 2.5 c 0 0.21875 0.042969 0.421875 0.09375 0.625 c -0.179688 -0.074219 -0.386719 -0.125 -0.59375 -0.125 c -0.828125 0 -1.5 0.671875 -1.5 1.5 s 0.671875 1.5 1.5 1.5 h 8 c 0.828125 0 1.5 -0.671875 1.5 -1.5 s -0.671875 -1.5 -1.5 -1.5 c 0 -1.105469 -0.894531 -2 -2 -2 c -0.316406 0 -0.609375 0.089844 -0.875 0.21875 c -0.4375 -0.726562 -1.214844 -1.21875 -2.125 -1.21875 z m 0 0" fill="#2e3436"/>
</svg>

<svg width="16" height="16" viewBox="0 0 16 16" fill="none" xmlns="http://www.w3.org/2000/svg">
<g clip-path="url(#clip0_231_1200)">
<path d="M9.5 2C8.21484 2 7.17188 2.97266 7.03125 4.21875C6.70313 4.09766 6.37109 4 6 4C4.34375 4 3 5.34375 3 7C3 7.09766 3.02344 7.18359 3.03125 7.28125C2.73047 7.10156 2.375 7 2 7C0.894531 7 0 7.89453 0 9C0 10.1055 0.894531 11 2 11H5.10156C5.35156 9.32031 6.75391 8 8.5 8C9.48047 8 10.2852 8.48828 10.918 9.14453C11.1133 9.09766 11.2773 9 11.5 9C12.7617 9 13.6875 9.875 14.1055 11H14.5C15.3281 11 16 10.3281 16 9.5C16 8.67188 15.3281 8 14.5 8C14.293 8 14.0859 8.05078 13.9063 8.125C13.957 7.92188 14 7.71875 14 7.5C14 6.26953 13.1055 5.27344 11.9375 5.0625C11.9805 4.88281 12 4.69531 12 4.5C12 3.12109 10.8789 2 9.5 2ZM8.5 9C7.12109 9 6 10.1211 6 11.5C6 11.7188 6.04297 11.9219 6.09375 12.125C5.91406 12.0508 5.70703 12 5.5 12C4.67188 12 4 12.6719 4 13.5C4 14.3281 4.67188 15 5.5 15H13.5C14.3281 15 15 14.3281 15 13.5C15 12.6719 14.3281 12 13.5 12C13.5 10.8945 12.6055 10 11.5 10C11.1836 10 10.8906 10.0898 10.625 10.2188C10.1875 9.49219 9.41016 9 8.5 9Z" fill="#2E3436"/>
</g>
<defs>
<clipPath id="clip0_231_1200">
<rect width="16" height="16" fill="white"/>
</clipPath>
</defs>
</svg>
